icon-themes/sifr_svg/cmd/lc_exportto.svg

<svg viewBox="0 0 24 24" xmlns="http://www.w3.org/2000/svg"><path d="m3 2v21h17v-2h-2-13v-17h8v5h5 2v-1l-6-6zm14 8v1c0 .2653.0931.53058.28125.71875l2.28125 2.28125h-10.5625v2h10.5625l-2.28125 2.28125c-.18811.18818-.28129.45344-.28125.71875v1h1c.26529 0 .53057-.09304.71875-.28125l4-4 .28125-.28125v-.875l-.28125-.28125-4-4c-.18817-.18814-.45344-.28122-.71875-.28125z" fill="#555753"/></svg>

<svg xmlns="http://www.w3.org/2000/svg" viewBox="0 0 24 24">
  <path
     style="fill:#555753"
     d="M 3 2 L 3 23 L 20 23 L 20 21 L 18 21 L 5 21 L 5 4 L 13 4 L 13 9 L 18 9 L 20 9 L 20 8 L 14 2 L 3 2 z M 17 10 L 17 11 C 17 11.2653 17.0931 11.53058 17.28125 11.71875 L 19.5625 14 L 9 14 L 9 16 L 19.5625 16 L 17.28125 18.28125 C 17.09314 18.46943 16.99996 18.73469 17 19 L 17 20 L 18 20 C 18.26529 20 18.53057 19.90696 18.71875 19.71875 L 22.71875 15.71875 L 23 15.4375 L 23 14.5625 L 22.71875 14.28125 L 18.71875 10.28125 C 18.53058 10.09311 18.26531 10.00003 18 10 L 17 10 z "
     />
</svg>
